X:1
T: Nymph Divine
N:
C:
S:
A:
O:
R:
M:4/4
K:C
I:speed 200
%W: A1
% voice 1 (1 lines, 25 notes)
K:C
M:4/4
L:1/16
G4 |c4 c4 c4 c4 |d12 d4 |e4 d2 e2 f2 e2 d2 c2 |d12 d4 |e4 d2 e2 f2 e2 d2 c2 |d12 d4 |
%W:
% voice 1 (1 lines, 30 notes)
e4 d4 e4 d4 |e4 d4 e4 f4 |g4 c2 d2 B6 c2 |c12 d4 |e4 d4 e4 d4 |e4 d4 e4 f4 |g4 c2 d2 B6 c2 |c12 G4 |
%W: A2
% voice 1 (1 lines, 24 notes)
c4 c4 c4 c4 |d12 d4 |e4 d2 e2 f2 e2 d2 c2 |d12 d4 |e4 d2 e2 f2 e2 d2 c2 |d12 d4 |
%W:
% voice 1 (1 lines, 30 notes)
e4 d4 e4 d4 |e4 d4 e4 f4 |g4 c2 d2 B6 c2 |c12 d4 |e4 d4 e4 d4 |e4 d4 e4 f4 |g4 c2 d2 B6 c2 |c12 e4 |
%W: B
% voice 1 (1 lines, 27 notes)
B4 B4 c4 B2 A2 |^G12 e4 |B4 B4 c4 B2 A2 |^G12 A4 |B4 B4 B4 c4 |d8 c4 B4 |c4 B4 B6 A2 |A12 e4 |
%W:
% voice 1 (1 lines, 26 notes)
f4 e4 f4 e4 |f12 e2 d2 |^c4 d4 c6 d2 |d12 e4 |f4 e4 f4 e4 |f12 g4 |a2 ^c2 d2 e2 c6 d2 |d12 ||
